library/img/twitter.svg

<svg width="24" height="24" viewBox="0 0 24 24" xmlns="http://www.w3.org/2000/svg">
<g id="u:twitter-alt">
<path id="Vector" d="M22.9912 3.95021C22.9913 3.77357 22.9447 3.60007 22.8559 3.44735C22.7671 3.29464 22.6395 3.16817 22.486 3.08084C22.3324 2.9935 22.1585 2.94842 21.9819 2.95017C21.8053 2.95193 21.6323 3.00046 21.4805 3.09083C20.8952 3.43921 20.265 3.70601 19.6075 3.88383C18.6685 3.07806 17.4708 2.63713 16.2335 2.64164C14.8761 2.6432 13.5724 3.17223 12.5977 4.11702C11.623 5.06181 11.0537 6.3484 11.0099 7.70512C8.33384 7.27838 5.90849 5.88164 4.19631 3.78126C4.09315 3.65609 3.9614 3.55757 3.81217 3.494C3.66295 3.43043 3.50062 3.40368 3.33889 3.41601C3.17725 3.42932 3.02128 3.4818 2.88448 3.56892C2.74768 3.65603 2.63416 3.77516 2.55373 3.91601C2.14126 4.63582 1.90436 5.44276 1.86228 6.27131C1.8202 7.09986 1.97412 7.92666 2.31154 8.68456L2.30959 8.68651C2.15794 8.77991 2.03278 8.91066 1.94609 9.06625C1.85941 9.22185 1.81409 9.39708 1.81447 9.57519C1.81263 9.72211 1.82145 9.86898 1.84084 10.0146C1.94298 11.2729 2.50062 12.4507 3.4092 13.3271C3.34756 13.4446 3.30994 13.5731 3.29854 13.7052C3.28714 13.8373 3.30218 13.9704 3.34279 14.0967C3.7389 15.3308 4.58129 16.3727 5.7051 17.0185C4.56334 17.46 3.33052 17.614 2.11525 17.4668C1.89032 17.4386 1.66248 17.4876 1.4691 17.6059C1.27572 17.7242 1.12828 17.9047 1.05097 18.1178C0.973654 18.3309 0.97106 18.5639 1.04361 18.7787C1.11616 18.9935 1.25955 19.1772 1.45025 19.2998C3.54034 20.646 5.97393 21.3617 8.46002 21.3613C11.2793 21.393 14.03 20.4921 16.2843 18.7988C18.5385 17.1054 20.17 14.7145 20.9248 11.998C21.2779 10.8146 21.4582 9.58648 21.46 8.35157C21.46 8.28614 21.46 8.21876 21.459 8.15138C21.9811 7.58831 22.3856 6.92668 22.6487 6.20527C22.9118 5.48387 23.0283 4.7172 22.9912 3.95021V3.95021ZM19.6846 7.16212C19.5194 7.35746 19.4358 7.60891 19.4512 7.86427C19.461 8.02927 19.46 8.19527 19.46 8.35157C19.4579 9.39511 19.305 10.4329 19.0059 11.4326C18.3894 13.744 17.015 15.7817 15.103 17.2192C13.1909 18.6568 10.8517 19.4111 8.46002 19.3613C7.6009 19.3616 6.74474 19.2606 5.90924 19.0606C6.97465 18.7172 7.97083 18.1879 8.85162 17.4971C9.01385 17.3693 9.13257 17.1945 9.19151 16.9967C9.25044 16.7988 9.2467 16.5875 9.18079 16.3918C9.11489 16.1962 8.99005 16.0257 8.8234 15.9038C8.65675 15.7819 8.45647 15.7145 8.25002 15.7109C7.41885 15.698 6.62515 15.363 6.03615 14.7764C6.18557 14.7481 6.33401 14.7129 6.48147 14.6709C6.69748 14.6094 6.88651 14.477 7.01813 14.295C7.14975 14.1131 7.21629 13.8921 7.20704 13.6677C7.1978 13.4433 7.1133 13.2285 6.96715 13.058C6.82101 12.8874 6.62173 12.7711 6.40139 12.7275C5.91893 12.6323 5.46494 12.427 5.0747 12.1277C4.68447 11.8284 4.36852 11.4432 4.15139 11.002C4.33212 11.0266 4.514 11.0419 4.69631 11.0479C4.91289 11.0511 5.1249 10.9854 5.30169 10.8603C5.47847 10.7351 5.61086 10.5569 5.67971 10.3516C5.74569 10.1443 5.74229 9.92123 5.67004 9.7161C5.59778 9.51096 5.46061 9.33499 5.27932 9.21485C4.83947 8.92182 4.47916 8.52427 4.23068 8.0578C3.98219 7.59134 3.85328 7.07052 3.85549 6.54201C3.85549 6.47561 3.85744 6.4092 3.86135 6.34377C6.10261 8.43402 9.00967 9.66621 12.0703 9.82326C12.2248 9.82934 12.3787 9.80024 12.5203 9.73816C12.6619 9.67607 12.7875 9.58262 12.8877 9.46486C12.9869 9.34596 13.0571 9.20566 13.0929 9.05501C13.1286 8.90437 13.1289 8.74748 13.0937 8.5967C13.0366 8.35806 13.0074 8.11357 13.0068 7.86818C13.0077 7.01271 13.348 6.19254 13.9529 5.58764C14.5578 4.98274 15.378 4.64251 16.2334 4.64161C16.6736 4.64043 17.1092 4.7305 17.5127 4.90615C17.9163 5.0818 18.2791 5.3392 18.5781 5.66212C18.6935 5.7862 18.8386 5.87871 18.9998 5.93085C19.161 5.98299 19.3329 5.99303 19.499 5.96001C19.9098 5.88006 20.3147 5.7724 20.7109 5.63775C20.4407 6.19072 20.0953 6.70369 19.6846 7.16212V7.16212Z"/>
</g>
</svg>

<svg width="24" height="24" xmlns="http://www.w3.org/2000/svg"><path d="M22.991 3.95a1 1 0 00-1.51-.86 7.48 7.48 0 01-1.873.794 5.152 5.152 0 00-3.375-1.242 5.232 5.232 0 00-5.223 5.063 11.032 11.032 0 01-6.814-3.924 1.011 1.011 0 00-.857-.365.998.998 0 00-.785.5 5.275 5.275 0 00-.242 4.769l-.002.002a1.041 1.041 0 00-.496.888 3.04 3.04 0 00.027.44 5.185 5.185 0 001.568 3.312.999.999 0 00-.066.77 5.204 5.204 0 002.362 2.921 7.465 7.465 0 01-3.59.449A1 1 0 001.45 19.3a12.942 12.942 0 007.01 2.061 12.788 12.788 0 0012.465-9.363c.353-1.183.533-2.412.535-3.646l-.001-.2a5.77 5.77 0 001.532-4.202zm-3.306 3.212a.995.995 0 00-.234.702c.01.165.009.331.009.488a10.825 10.825 0 01-.454 3.08 10.685 10.685 0 01-10.546 7.93c-.86 0-1.715-.101-2.55-.301a9.48 9.48 0 002.942-1.564 1.001 1.001 0 00-.602-1.786 3.208 3.208 0 01-2.214-.935 4.87 4.87 0 00.445-.105 1 1 0 00-.08-1.944 3.197 3.197 0 01-2.25-1.725c.181.025.363.04.545.046a1.022 1.022 0 00.984-.696 1 1 0 00-.4-1.137 3.196 3.196 0 01-1.42-2.871 13.014 13.014 0 008.21 3.48 1.02 1.02 0 00.817-.36 1 1 0 00.206-.867 3.164 3.164 0 01-.087-.729 3.23 3.23 0 014.506-2.962c.403.176.766.433 1.065.756a.993.993 0 00.921.298 9.27 9.27 0 001.212-.322 6.679 6.679 0 01-1.026 1.524z"/></svg>
